assets/images/ico_vk.svg

<svg width="23" height="14" viewBox="0 0 23 14" fill="none" xmlns="http://www.w3.org/2000/svg">
<path fill-rule="evenodd" clip-rule="evenodd" d="M19.7486 8.40778C20.5033 9.16409 21.3016 9.87587 21.9791 10.7104C22.2792 11.0795 22.5621 11.4612 22.7775 11.8905C23.0849 12.5027 22.8073 13.1741 22.2733 13.2104L18.9562 13.2097C18.0995 13.2825 17.4178 12.928 16.843 12.327C16.3842 11.848 15.9585 11.3365 15.5166 10.8412C15.3361 10.638 15.1459 10.4466 14.9193 10.296C14.4671 9.99416 14.0742 10.0866 13.8152 10.5713C13.5511 11.0645 13.4909 11.6111 13.4657 12.1601C13.4296 12.9626 13.1937 13.1724 12.4089 13.2101C10.732 13.2906 9.1409 13.0296 7.66209 12.1621C6.35753 11.397 5.34781 10.3171 4.46795 9.0944C2.7546 6.71093 1.44242 4.09495 0.263416 1.40385C-0.00193408 0.797779 0.192193 0.4735 0.843808 0.460924C1.92641 0.439509 3.00902 0.442228 4.09162 0.459904C4.53221 0.467042 4.82373 0.725717 4.99302 1.15231C5.57805 2.62924 6.29525 4.03444 7.194 5.33767C7.43351 5.68472 7.67799 6.03076 8.02616 6.27584C8.41044 6.54641 8.70328 6.45701 8.88449 6.01682C9.00044 5.73707 9.05046 5.43795 9.07564 5.13814C9.16177 4.11126 9.17204 3.08472 9.02296 2.06192C8.93021 1.42186 8.57939 1.00853 7.95759 0.887516C7.64089 0.825992 7.68727 0.705662 7.84131 0.520069C8.10865 0.19919 8.35909 0.000679828 8.85965 0.000679828L12.6073 0C13.198 0.11897 13.3305 0.390901 13.4107 1.00139L13.414 5.27479C13.407 5.51103 13.5296 6.21125 13.943 6.36591C14.2743 6.47808 14.493 6.20547 14.6911 5.99031C15.5898 5.01169 16.2302 3.85667 16.8036 2.66119C17.0567 2.13398 17.275 1.58842 17.487 1.04184C17.6447 0.637679 17.8898 0.438829 18.3344 0.445627L21.9433 0.450046C22.0497 0.450046 22.1576 0.451066 22.263 0.469761C22.8712 0.576494 23.0378 0.845027 22.8497 1.45381C22.5535 2.41033 21.9781 3.20709 21.4156 4.00589C20.8127 4.86111 20.1697 5.68642 19.5727 6.54539C19.0241 7.33059 19.0675 7.72591 19.7486 8.40778Z" fill="white"/>
</svg>

<svg width="23" height="14" fill="none" xmlns="http://www.w3.org/2000/svg"><path fill-rule="evenodd" clip-rule="evenodd" d="M19.749 8.408c.754.756 1.553 1.468 2.23 2.302.3.37.583.751.799 1.18.307.613.03 1.284-.505 1.32h-3.317c-.857.072-1.538-.282-2.113-.883-.459-.479-.884-.99-1.326-1.486a3.13 3.13 0 00-.598-.545c-.452-.302-.845-.21-1.104.275-.264.494-.324 1.04-.35 1.59-.035.802-.271 1.011-1.056 1.05-1.677.08-3.268-.181-4.747-1.049-1.304-.765-2.314-1.845-3.194-3.068C2.755 6.711 1.442 4.095.263 1.404-.002.798.193.474.843.46a89.954 89.954 0 013.25 0c.44.007.732.266.901.692.585 1.477 1.302 2.882 2.201 4.186.24.347.484.693.832.938.384.27.677.181.858-.26.116-.279.166-.578.192-.878.086-1.027.096-2.053-.053-3.076-.093-.64-.444-1.053-1.065-1.174C7.64.826 7.688.706 7.84.52 8.11.2 8.36 0 8.86 0h3.747c.591.119.724.39.804 1.001l.003 4.274c-.007.236.116.936.529 1.09.331.113.55-.16.748-.375.899-.978 1.54-2.133 2.113-3.329.253-.527.471-1.073.683-1.62.158-.403.403-.602.847-.595l3.61.004c.106 0 .214.001.319.02.608.106.775.375.587.984-.297.956-.872 1.753-1.434 2.552-.603.855-1.246 1.68-1.843 2.54-.549.785-.506 1.18.176 1.862z" fill="#fff"/></svg>
